X: 1
T: Maggie In The Woods
R: polka
M: 2/4
L: 1/8
K: Gmaj
B/A/ | "G"  GD  GA | "C"  Be e/f/g/e/ | "G"  dB     B/A/G/A/ | "D" BA A/c/B/A/ |
       "G"  GD  GA | "Em" Be e/f/g/e/ | "C"  dB "D" AB/A/    | "G" G2 G       :|
     | "G"  g>f ed | "C"  ef g>e      | "Am" dB     B/A/G/A/ | "D" BA A>d      |
       "Em" g>f ed | "C"  ef g>e      | "Am" dB "D" AB       | "G" G2 G2      :|
